icons/linux-dark.svg

<svg xmlns="http://www.w3.org/2000/svg" width="256" height="256" fill="none" viewBox="0 0 256 256"><rect width="256" height="256" fill="#282828" rx="60"/><path fill="#ECEFF1" d="M85.9493 199.926L110.48 213.546H147.576L182.278 187.491L197.834 146.632L161.935 103.405L151.764 79.1268L102.104 80.9032L102.702 94.5228L93.1291 112.287L78.1713 141.303L75.1797 165.581L85.9493 199.926Z"/><path fill="#263238" d="M187.064 114.656C177.491 101.036 169.713 92.7463 165.525 75.5738C161.337 58.4013 166.722 63.1386 163.132 48.3347C161.337 40.6367 158.345 35.3073 155.354 31.1622C151.764 27.0171 147.576 24.6485 145.182 24.0563C139.798 21.0956 127.233 16.3583 111.677 24.6485C95.5223 32.9387 97.3172 50.7033 100.309 86.8248C100.309 89.1934 99.7105 92.1542 98.5139 94.5228C96.1206 99.8522 91.9324 104.589 88.3425 108.735C84.1543 114.656 79.9661 120.578 76.9746 127.091C69.7948 140.711 63.2134 157.883 65.0083 164.397C67.9999 163.805 105.694 220.652 105.694 221.836C108.087 221.244 118.258 221.244 127.233 221.244C139.798 220.652 146.977 220.06 157.149 222.428C157.149 220.652 156.55 218.875 156.55 217.099C156.55 213.546 157.149 210.585 157.747 206.44C158.345 203.479 158.944 200.519 159.542 196.966C153.559 202.295 142.789 208.217 132.618 209.993C123.643 211.769 108.685 208.809 101.505 199.926C102.104 199.926 103.3 199.926 103.899 199.334C105.694 198.742 107.489 198.15 108.087 196.966C109.882 194.005 108.685 191.044 107.489 189.268C106.292 187.491 97.3173 180.977 93.1291 177.425C88.9409 173.872 86.5476 172.095 84.1544 169.727C84.1544 169.727 80.5645 166.174 79.3678 164.989C78.1712 163.805 77.5729 162.621 76.9746 162.028C75.778 159.068 75.1796 155.515 75.778 150.778C76.3763 144.264 78.7695 138.934 81.7611 133.013C82.9577 130.644 85.9493 125.907 85.9493 125.907C85.9493 125.907 75.778 150.778 81.1628 158.476C81.1628 158.476 81.7611 150.778 84.1544 143.08C85.9493 137.75 88.9409 130.052 92.5307 125.907C96.1206 121.762 105.095 106.366 105.694 96.8914C105.694 92.7463 106.292 88.6012 106.292 85.6405C103.899 83.2718 145.781 77.3503 148.174 83.864C148.772 86.2326 157.149 107.55 161.935 118.801C164.328 124.131 167.32 128.868 169.115 134.789C170.91 141.303 172.106 150.185 172.106 159.068C172.106 160.844 172.106 163.805 171.508 166.766C172.705 166.766 196.039 141.895 168.517 121.17C168.517 121.17 185.269 128.868 185.868 144.264C186.466 156.699 181.081 166.766 179.885 168.542C180.483 168.542 192.449 173.872 193.047 173.872C195.441 173.872 200.227 172.095 200.227 172.095C200.826 170.319 202.62 165.581 202.62 163.805C206.809 150.185 196.637 128.276 187.064 114.656V114.656Z"/><path fill="#ECEFF1" d="M111.078 75.5738C115.374 75.5738 118.856 70.2714 118.856 63.7307C118.856 57.1899 115.374 51.8876 111.078 51.8876C106.783 51.8876 103.3 57.1899 103.3 63.7307C103.3 70.2714 106.783 75.5738 111.078 75.5738Z"/><path fill="#ECEFF1" d="M138.002 76.7581C143.62 76.7581 148.174 70.6604 148.174 63.1386C148.174 55.6167 143.62 49.519 138.002 49.519C132.385 49.519 127.831 55.6167 127.831 63.1386C127.831 70.6604 132.385 76.7581 138.002 76.7581Z"/><path fill="#212121" d="M115.424 64.5411C114.927 60.6476 112.663 57.7241 110.368 58.0111C108.074 58.2982 106.616 61.6872 107.114 65.5807C107.611 69.4741 109.874 72.3977 112.169 72.1106C114.464 71.8235 115.921 68.4345 115.424 64.5411Z"/><path fill="#212121" d="M137.404 73.2052C140.709 73.2052 143.387 69.7587 143.387 65.5072C143.387 61.2557 140.709 57.8091 137.404 57.8091C134.1 57.8091 131.421 61.2557 131.421 65.5072C131.421 69.7587 134.1 73.2052 137.404 73.2052Z"/><path fill="#FFC107" d="M216.98 195.781C214.587 194.597 210.398 192.82 206.808 187.491C205.014 184.53 205.612 176.24 202.62 172.687C200.825 170.319 198.432 171.503 197.834 171.503C192.449 172.687 179.884 180.977 171.508 171.503C170.311 170.319 168.516 168.542 165.525 168.542C162.533 168.542 161.337 169.726 160.14 172.095C158.943 174.464 158.943 176.24 158.943 182.162C158.943 186.899 158.943 192.228 158.345 196.373C157.148 206.44 155.354 212.362 155.354 218.283C155.354 224.797 157.148 228.942 159.542 230.718C161.337 232.495 164.328 233.679 170.91 233.679C177.491 233.679 181.679 231.311 185.868 227.165C188.859 224.205 191.252 223.02 199.629 217.099C206.21 212.954 216.382 207.624 218.176 205.848C219.373 204.664 221.168 204.071 221.168 200.518C221.168 197.558 218.775 196.373 216.98 195.781V195.781Z"/><path fill="#FFC107" d="M96.7189 197.558C90.7357 188.083 90.1374 186.307 85.9492 180.385C82.3593 174.464 74.5813 163.213 69.7948 163.213C66.2049 163.213 64.4099 164.989 62.0167 167.358C59.6234 169.726 57.2302 175.056 53.042 178.017C49.4521 180.977 39.2808 180.385 36.8875 183.938C34.4942 187.491 39.2808 192.821 39.2808 201.703C39.2808 205.256 36.2892 207.624 35.6909 209.993C35.0926 212.954 34.4942 214.73 35.6909 217.099C38.0841 220.652 41.0757 221.836 61.4184 225.981C72.188 228.35 82.3593 234.271 88.9408 234.864C95.5222 235.456 106.89 234.864 106.89 218.875C107.489 209.401 102.104 207.032 96.7189 197.558Z"/><path fill="#FFC107" d="M108.087 90.3777C104.497 88.0091 101.505 85.6404 101.505 82.0875C101.505 78.5346 103.899 77.3503 107.489 74.3895C108.087 73.7973 114.668 67.8758 121.25 67.8758C127.831 67.8758 135.609 72.0209 138.601 73.2052C143.986 74.3895 149.37 75.5738 148.772 79.7189C148.174 85.6404 147.576 86.8248 141.592 89.7855C137.404 90.9698 129.626 97.4835 124.241 97.4835C121.848 97.4835 118.258 97.4835 115.865 96.8914C114.07 96.2992 111.078 93.3385 108.087 90.3777V90.3777Z"/><path fill="#634703" d="M106.89 85.6405C108.087 86.8248 109.882 88.0091 111.677 88.6012C112.873 89.1934 114.668 89.7856 114.668 89.7856C117.062 89.7856 118.857 89.7856 120.053 89.7856C123.045 89.7856 127.233 88.6013 131.421 86.2326C135.609 84.4562 136.208 83.2718 139.199 82.0875C142.191 80.3111 145.182 78.5346 143.986 77.9425C142.789 77.3503 141.592 77.9425 137.404 80.3111C133.814 82.6797 130.823 83.864 127.233 85.6405C125.438 86.2326 123.045 87.4169 121.25 87.4169C119.455 87.4169 117.66 87.4169 115.865 87.4169C114.07 87.4169 112.873 86.8248 111.078 86.2326C109.882 85.6405 109.283 85.0483 108.685 85.0483C107.489 84.4562 105.095 82.0875 103.899 81.4954C103.899 81.4954 102.702 81.4954 103.3 82.0875C105.095 83.864 105.694 84.4562 106.89 85.6405Z"/><path fill="#634703" d="M124.84 72.613C125.438 73.7973 126.635 73.7973 127.233 74.3895C127.831 74.9816 128.429 74.9816 128.429 74.9816C129.028 74.3895 128.429 73.2052 127.831 73.2052C127.831 72.0209 124.84 72.0209 124.84 72.613V72.613Z"/><path fill="#634703" d="M115.267 73.7973C115.267 74.3895 116.463 74.9816 116.463 74.3895C117.062 73.7973 117.66 73.2052 118.258 73.2052C119.455 72.613 118.856 72.0209 117.062 72.0209C115.865 72.613 115.865 73.2052 115.267 73.7973V73.7973Z"/><path fill="#455A64" d="M173.303 178.609C173.303 179.201 173.303 179.793 173.303 180.385C174.5 182.754 177.491 183.346 179.884 183.346C183.474 183.346 187.064 180.977 188.859 178.609C188.859 178.017 189.457 177.424 190.056 176.832C191.252 175.056 191.851 173.872 192.449 173.279C192.449 173.279 191.851 172.687 191.851 172.095C191.252 170.911 189.457 169.726 187.064 169.134C185.269 168.542 182.278 167.95 181.081 167.95C175.696 167.358 172.705 169.134 170.91 170.911C170.91 170.911 171.508 170.911 171.508 171.503C172.705 172.687 173.303 173.872 173.303 175.648C173.901 176.832 173.303 177.424 173.303 178.609V178.609Z"/></svg>

<svg xmlns="http://www.w3.org/2000/svg" width="256" height="256" fill="none"><rect width="256" height="256" fill="#282828" rx="60"/><path fill="#ECEFF1" d="m85.95 199.926 24.53 13.62h37.096l34.702-26.055 15.556-40.859-35.899-43.227-10.171-24.278-49.66 1.776.598 13.62-9.573 17.764-14.958 29.016-2.991 24.278z"/><path fill="#263238" d="M187.064 114.656c-9.573-13.62-17.351-21.91-21.539-39.082s1.197-12.435-2.393-27.24c-1.795-7.697-4.787-13.027-7.778-17.172-3.59-4.145-7.778-6.514-10.172-7.106-5.384-2.96-17.949-7.698-33.505.592-16.155 8.29-14.36 26.055-11.368 62.177 0 2.368-.599 5.33-1.795 7.698-2.393 5.33-6.582 10.066-10.171 14.212-4.189 5.921-8.377 11.843-11.368 18.356-7.18 13.62-13.762 30.792-11.967 37.306 2.992-.592 40.686 56.255 40.686 57.439 2.393-.592 12.564-.592 21.539-.592 12.565-.592 19.744-1.184 29.916 1.184 0-1.776-.599-3.553-.599-5.329 0-3.553.599-6.514 1.197-10.659.598-2.961 1.197-5.921 1.795-9.474-5.983 5.329-16.753 11.251-26.924 13.027-8.975 1.776-23.933-1.184-31.113-10.067.599 0 1.795 0 2.394-.592 1.795-.592 3.59-1.184 4.188-2.368 1.795-2.961.598-5.922-.598-7.698-1.197-1.777-10.172-8.291-14.36-11.843-4.188-3.553-6.581-5.33-8.975-7.698l-4.786-4.738c-1.197-1.184-1.795-2.368-2.393-2.961-1.197-2.96-1.795-6.513-1.197-11.25.598-6.514 2.991-11.844 5.983-17.765 1.197-2.369 4.188-7.106 4.188-7.106s-10.171 24.871-4.786 32.569c0 0 .598-7.698 2.991-15.396 1.795-5.33 4.787-13.028 8.377-17.173s12.564-19.541 13.163-29.016c0-4.145.598-8.29.598-11.25-2.393-2.37 39.489-8.29 41.882-1.777.598 2.369 8.975 23.686 13.761 34.937 2.393 5.33 5.385 10.067 7.18 15.988 1.795 6.514 2.991 15.396 2.991 24.279 0 1.776 0 4.737-.598 7.698 1.197 0 24.531-24.871-2.991-45.596 0 0 16.752 7.698 17.351 23.094.598 12.435-4.787 22.502-5.983 24.278.598 0 12.564 5.33 13.162 5.33 2.394 0 7.18-1.777 7.18-1.777.599-1.776 2.393-6.514 2.393-8.29 4.189-13.62-5.983-35.529-15.556-49.149"/><path fill="#ECEFF1" d="M111.078 75.574c4.296 0 7.778-5.303 7.778-11.843 0-6.541-3.482-11.843-7.778-11.843S103.3 57.19 103.3 63.73s3.483 11.843 7.778 11.843m26.924 1.185c5.618 0 10.172-6.098 10.172-13.62S143.62 49.52 138.002 49.52c-5.617 0-10.171 6.098-10.171 13.62s4.554 13.62 10.171 13.62"/><path fill="#212121" d="M115.424 64.541c-.497-3.893-2.761-6.817-5.056-6.53s-3.752 3.676-3.254 7.57c.497 3.893 2.76 6.817 5.055 6.53 2.295-.288 3.752-3.677 3.255-7.57m21.98 8.664c3.305 0 5.983-3.446 5.983-7.698 0-4.251-2.678-7.698-5.983-7.698s-5.983 3.447-5.983 7.698 2.679 7.698 5.983 7.698"/><path fill="#FFC107" d="M216.98 195.781c-2.393-1.184-6.582-2.961-10.172-8.29-1.794-2.961-1.196-11.251-4.188-14.804-1.795-2.368-4.188-1.184-4.786-1.184-5.385 1.184-17.95 9.474-26.326 0-1.197-1.184-2.992-2.961-5.983-2.961-2.992 0-4.188 1.184-5.385 3.553s-1.197 4.145-1.197 10.067c0 4.737 0 10.066-.598 14.211-1.197 10.067-2.991 15.989-2.991 21.91 0 6.514 1.794 10.659 4.188 12.435 1.795 1.777 4.786 2.961 11.368 2.961 6.581 0 10.769-2.368 14.958-6.514 2.991-2.96 5.384-4.145 13.761-10.066 6.581-4.145 16.753-9.475 18.547-11.251 1.197-1.184 2.992-1.777 2.992-5.33 0-2.96-2.393-4.145-4.188-4.737m-120.261 1.777c-5.983-9.475-6.582-11.251-10.77-17.173-3.59-5.921-11.368-17.172-16.154-17.172-3.59 0-5.385 1.776-7.778 4.145-2.394 2.368-4.787 7.698-8.975 10.659-3.59 2.96-13.761 2.368-16.154 5.921s2.393 8.883 2.393 17.765c0 3.553-2.992 5.921-3.59 8.29-.598 2.961-1.197 4.737 0 7.106 2.393 3.553 5.385 4.737 25.727 8.882 10.77 2.369 20.941 8.29 27.523 8.883 6.581.592 17.949 0 17.949-15.989.599-9.474-4.786-11.843-10.171-21.317m11.368-107.18c-3.59-2.369-6.582-4.738-6.582-8.29 0-3.553 2.394-4.738 5.984-7.698.598-.593 7.179-6.514 13.761-6.514s14.359 4.145 17.351 5.33c5.385 1.183 10.769 2.368 10.171 6.513-.598 5.921-1.196 7.106-7.18 10.067-4.188 1.184-11.966 7.698-17.351 7.698-2.393 0-5.983 0-8.376-.593-1.795-.592-4.787-3.553-7.778-6.513"/><path fill="#634703" d="M106.89 85.64c1.197 1.185 2.992 2.37 4.787 2.961 1.196.592 2.991 1.185 2.991 1.185h5.385c2.992 0 7.18-1.185 11.368-3.553 4.188-1.777 4.787-2.961 7.778-4.145 2.992-1.777 5.983-3.553 4.787-4.145-1.197-.593-2.394 0-6.582 2.368-3.59 2.369-6.581 3.553-10.171 5.33-1.795.592-4.188 1.776-5.983 1.776h-5.385c-1.795 0-2.992-.592-4.787-1.184-1.196-.593-1.795-1.185-2.393-1.185-1.196-.592-3.59-2.96-4.786-3.553 0 0-1.197 0-.599.593zm17.95-13.027c.598 1.184 1.795 1.184 2.393 1.776s1.196.593 1.196.593c.599-.593 0-1.777-.598-1.777 0-1.184-2.991-1.184-2.991-.592m-9.573 1.184c0 .593 1.196 1.185 1.196.593.599-.593 1.197-1.185 1.795-1.185 1.197-.592.598-1.184-1.196-1.184-1.197.592-1.197 1.184-1.795 1.776"/><path fill="#455A64" d="M173.303 178.609v1.776c1.197 2.369 4.188 2.961 6.581 2.961 3.59 0 7.18-2.369 8.975-4.737 0-.592.598-1.185 1.197-1.777 1.196-1.776 1.795-2.96 2.393-3.553 0 0-.598-.592-.598-1.184-.599-1.184-2.394-2.369-4.787-2.961-1.795-.592-4.786-1.184-5.983-1.184-5.385-.592-8.376 1.184-10.171 2.961 0 0 .598 0 .598.592 1.197 1.184 1.795 2.369 1.795 4.145.598 1.184 0 1.776 0 2.961"/></svg>
